X: 11
M:2/4
L:1/16
K:G
uD2"^Segno"|\
|:vFA|\
d2(^cd) Bd^cB | AFGA B^cde | f2(ef) d2(fe) | dB^c^A B=AFA |
d2(^cd) BdcB | AFGA B^cde | \
f2(ef) dkf2e |1 dB^c^A B2:|2 dB^c^A B=cB=A "^Segno"|]


